X:30
T:Old Woman Tossed in a Blanket
S:Bernie Waugh
R:Jig
M:6/8
L:1/8
K:A
|:E|\
"A"A~cB Bce|"Em"~fed B2~B|"A"AcB c2A/B/|"F#m"cAF ~F2E|
"A"A~cB Bce|"Em"~fed B2~B|"A"AEA "Em"c/d/ec|"A"~BAA A2:|
|:e|\
"A"~fea ~fee|"C#m"~fea ~fec|"F#"c/d/ee ~fec|"G"~cBA B3|
"D"f/g/aa "C#m"~age|"Bm"~fec "E"B2~B|"A"AEA "Em"c/d/ec|"A"BAA A2:|

